ui/StatusQ/src/assets/img/icons/tiny/community-1.svg

<svg fill="none" height="16" viewBox="0 0 16 16" width="16" xmlns="http://www.w3.org/2000/svg"><path clip-rule="evenodd" d="m10 14c1.1046 0 2-.8954 2-2 1.1046 0 2-.8954 2-2v-6c0-1.10457-.8954-2-2-2-5.52285 0-10 4.47715-10 10 0 1.1046.89543 2 2 2zm-6-2c0-4.41828 3.58172-8 8-8v2c-3.31371 0-6 2.68629-6 6zm8-4c-2.20914 0-4 1.79086-4 4h2c0-1.1046.8954-2 2-2z" fill="#000" fill-rule="evenodd"/></svg>

<svg width="16" height="16" viewBox="0 0 16 16" fill="none" xmlns="http://www.w3.org/2000/svg">
<path fill-rule="evenodd" clip-rule="evenodd" d="M10 14C11.1046 14 12 13.1046 12 12C13.1046 12 14 11.1046 14 10V4C14 2.89543 13.1046 2 12 2C6.47715 2 2 6.47715 2 12C2 13.1046 2.89543 14 4 14H10ZM4 12C4 7.58172 7.58172 4 12 4V6C8.68629 6 6 8.68629 6 12H4ZM12 8C9.79086 8 8 9.79086 8 12H10C10 10.8954 10.8954 10 12 10V8Z" fill="black"/>
</svg>
